img/basket-icon.svg

<svg width="21" height="20" fill="none" xmlns="http://www.w3.org/2000/svg"><path d="M5.70345 2l-.24184-2H0v2h3.66795l1.51151 13H19.2869L21 2H5.70345zM17.5034 13H6.97313L5.96545 4H18.6924l-1.189 9zM7.03359 20c1.11305 0 2.01535-.8954 2.01535-2s-.9023-2-2.01535-2c-1.11305 0-2.01536.8954-2.01536 2s.90231 2 2.01536 2zM16.1027 20c1.113 0 2.0153-.8954 2.0153-2s-.9023-2-2.0153-2c-1.1131 0-2.0154.8954-2.0154 2s.9023 2 2.0154 2z" fill="#fff"/></svg>

<svg width="21" height="20" viewBox="0 0 21 20" fill="none" xmlns="http://www.w3.org/2000/svg">
<path d="M5.70345 2L5.46161 0H0V2H3.66795L5.17946 15H19.2869L21 2H5.70345ZM17.5034 13H6.97313L5.96545 4H18.6924L17.5034 13Z" fill="white"/>
<path d="M7.03359 20C8.14664 20 9.04894 19.1046 9.04894 18C9.04894 16.8954 8.14664 16 7.03359 16C5.92054 16 5.01823 16.8954 5.01823 18C5.01823 19.1046 5.92054 20 7.03359 20Z" fill="white"/>
<path d="M16.1027 20C17.2157 20 18.118 19.1046 18.118 18C18.118 16.8954 17.2157 16 16.1027 16C14.9896 16 14.0873 16.8954 14.0873 18C14.0873 19.1046 14.9896 20 16.1027 20Z" fill="white"/>
</svg>
